icons/tauri.svg

<?xml version="1.0" encoding="UTF-8"?>
<svg fill="none" version="1.1" viewBox="0 0 256 256" xmlns="http://www.w3.org/2000/svg">
 <g transform="translate(-8.8242e-5 .00011806)">
  <path d="m165.09 99.183c0 5.3447-2.123 10.471-5.902 14.25s-8.905 5.902-14.25 5.902c-5.344 0-10.47-2.123-14.249-5.902s-5.902-8.905-5.902-14.25c0-5.3445 2.123-10.47 5.902-14.249s8.905-5.9023 14.249-5.9023c5.345 0 10.471 2.1231 14.25 5.9023s5.902 8.9048 5.902 14.249z" fill="#ffca28"/>
  <path d="m111.04 136.74c-11.13 0-20.152 9.022-20.152 20.151 0 11.13 9.0221 20.152 20.152 20.152 11.129 0 20.152-9.022 20.152-20.152 0-11.129-9.023-20.151-20.152-20.151z" fill="#26c6da"/>
  <path d="m186.7 163.76c-8.099 5.236-17.11 8.902-26.564 10.809 2.74-7.811 3.649-16.147 2.657-24.365 8.015-2.802 15.258-7.454 21.14-13.577 5.882-6.124 10.239-13.547 12.716-21.669 2.478-8.121 3.007-16.712 1.545-25.076-1.462-8.3642-4.874-16.266-9.961-23.065-5.086-6.7992-11.703-12.304-19.313-16.069-7.611-3.7646-16.002-5.683-24.493-5.5994-8.491 0.0835-16.842 2.1665-24.377 6.0801-7.536 3.9137-14.043 9.5478-18.994 16.446-10.254 1.1537-20.231 4.0664-29.495 8.6103 3.662-11.816 10.119-22.574 18.823-31.363 8.7043-8.7893 19.399-15.35 31.179-19.127 11.779-3.7768 24.295-4.6578 36.488-2.5684 12.192 2.0894 23.7 7.0875 33.55 14.571 9.85 7.4832 17.75 17.231 23.031 28.417s7.788 23.48 7.307 35.841c-0.481 12.361-3.935 24.423-10.07 35.165-6.134 10.741-14.768 19.846-25.169 26.541zm-114.22-73.462 18.869 2.2899c0.428-3.6439 1.226-7.2347 2.3815-10.717-7.4637 1.7352-14.626 4.5756-21.251 8.4271z" clip-rule="evenodd" fill="#ffca28" fill-rule="evenodd"/>
  <path d="m69.182 92.314c8.1475-5.2892 17.223-8.9877 26.747-10.9-2.8809 7.8099-3.9154 16.18-3.0228 24.457-7.9877 2.842-15.195 7.523-21.039 13.665s-10.161 13.573-12.602 21.693c-2.441 8.119-2.9374 16.698-1.4493 25.045 1.4882 8.346 4.9192 16.226 10.016 23.001s11.716 12.257 19.322 16.001c7.6066 3.744 15.988 5.646 24.466 5.552 8.477-0.094 16.814-2.182 24.336-6.094 7.521-3.911 14.017-9.538 18.962-16.425 10.248-1.124 20.226-4.006 29.495-8.518-3.671 11.803-10.132 22.548-18.836 31.325s-19.394 15.328-31.166 19.098c-11.772 3.771-24.278 4.649-36.462 2.562-12.183-2.088-23.684-7.08-33.53-14.554-9.8454-7.474-17.745-17.21-23.031-28.383-5.2854-11.174-7.801-23.457-7.3337-35.809s3.9037-24.41 10.018-35.153c6.1146-10.742 14.727-19.854 25.109-26.562zm114.22 73.462-0.366 0.183z" clip-rule="evenodd" fill="#26c6da" fill-rule="evenodd"/>
 </g>
</svg>

<svg width="256" height="256" viewBox="0 0 256 256" fill="none" xmlns="http://www.w3.org/2000/svg">
<path d="M165.086 99.1833C165.086 104.528 162.963 109.654 159.184 113.433C155.405 117.212 150.279 119.335 144.934 119.335C139.59 119.335 134.464 117.212 130.685 113.433C126.906 109.654 124.783 104.528 124.783 99.1833C124.783 93.8388 126.906 88.7132 130.685 84.934C134.464 81.1548 139.59 79.0317 144.934 79.0317C150.279 79.0317 155.405 81.1548 159.184 84.934C162.963 88.7132 165.086 93.8388 165.086 99.1833Z" fill="#FFC131"/>
<path d="M111.043 136.739C99.9135 136.739 90.8914 145.761 90.8914 156.89C90.8914 168.02 99.9135 177.042 111.043 177.042C122.172 177.042 131.195 168.02 131.195 156.89C131.195 145.761 122.172 136.739 111.043 136.739Z" fill="#24C8DB"/>
<path fill-rule="evenodd" clip-rule="evenodd" d="M186.703 163.76C178.604 168.996 169.593 172.662 160.139 174.569C162.879 166.758 163.788 158.422 162.796 150.204C170.811 147.402 178.054 142.75 183.936 136.627C189.818 130.503 194.175 123.08 196.652 114.958C199.13 106.837 199.659 98.2458 198.197 89.8815C196.735 81.5173 193.323 73.6153 188.236 66.8161C183.15 60.0169 176.533 54.5119 168.923 50.7472C161.312 46.9826 152.921 45.0642 144.43 45.1478C135.939 45.2313 127.588 47.3143 120.053 51.2279C112.517 55.1416 106.01 60.7757 101.059 67.6736C90.8053 68.8273 80.8276 71.74 71.564 76.2839C75.226 64.4684 81.6829 53.7101 90.3871 44.9208C99.0914 36.1315 109.786 29.5705 121.566 25.7938C133.345 22.017 145.861 21.136 158.054 23.2254C170.246 25.3148 181.754 30.3129 191.604 37.7962C201.454 45.2794 209.354 55.0272 214.635 66.2131C219.916 77.399 222.423 89.6934 221.942 102.054C221.461 114.415 218.007 126.477 211.872 137.219C205.738 147.96 197.104 157.065 186.703 163.76V163.76ZM72.4799 90.2984L91.3492 92.5883C91.7772 88.9444 92.5752 85.3536 93.7307 81.8713C86.267 83.6065 79.1044 86.4469 72.4799 90.2984V90.2984Z" fill="#FFC131"/>
<path fill-rule="evenodd" clip-rule="evenodd" d="M69.1825 92.3135C77.33 87.0243 86.4055 83.3258 95.9292 81.4133C93.0483 89.2232 92.0138 97.5938 92.9064 105.87C84.9187 108.712 77.7116 113.393 71.8676 119.535C66.0236 125.677 61.7067 133.108 59.2658 141.228C56.8248 149.347 56.3284 157.926 57.8165 166.273C59.3047 174.619 62.7357 182.499 67.8322 189.274C72.9287 196.049 79.5478 201.531 87.1545 205.275C94.7611 209.019 103.142 210.921 111.62 210.827C120.097 210.733 128.434 208.645 135.956 204.733C143.477 200.822 149.973 195.195 154.918 188.308C165.166 187.184 175.144 184.302 184.413 179.79C180.742 191.593 174.281 202.338 165.577 211.115C156.873 219.892 146.183 226.443 134.411 230.213C122.639 233.984 110.133 234.862 97.9491 232.775C85.7658 230.687 74.2646 225.695 64.4193 218.221C54.5739 210.747 46.6741 201.011 41.3887 189.838C36.1033 178.664 33.5877 166.381 34.055 154.029C34.5223 141.677 37.9587 129.619 44.0732 118.876C50.1878 108.134 58.8006 99.0223 69.1825 92.3135V92.3135ZM183.405 165.775L183.039 165.958L183.405 165.775Z" fill="#24C8DB"/>
</svg>
